X: 256
T: The New Broom
R: barndance
M: 4/4
L: 1/8
K: Gmaj
|: DE | G3 B d2 Bd | ~e2 dB d2 BA | G3 A ~B2 AG | A2 E2 E2 DE |
G3 B d2 Bd | ~e2 dB d2 Bd | ed ge dB Ac | B2 G2 G2 :|
|: ga | b2 ba g3 a | bg ag e2 d2 | e2 ge dB GA |
[1 B2 A2 A2 ga | b2 ba g3 a | bg ag e2 d2 | ed ge dB Ac | B2 G2 G2 :|
[2 B2 A2 A2 BA | G3 B d2 Bd | ~e2 dB d2 Bd |ed ge dB Ac | B2 G2 G4 ||
F: https://thesession.org/tunes/1726#setting21951

